%
(1001)
(T32 D=3. CR=0. - ZMIN=-4. - FLAT END MILL)
N10 G90 G94 G17 G91.1
N15 G21
N20 G53 G0 Z0.
(2D CONTOUR1)
N25 T32 M6
N30 S5000 M3
N35 G17 G90 G94
N40 G54
N45 M8
N50 G0 X24.9 Y32.644
N55 G43 Z15. H32
N60 G0 Z5.
N65 G1 Z0.6 F166.67
N70 Z-3.7
N75 G18 G3 X24.6 Z-4. I-0.3 K0. F500.
N80 G1 X24.3
N85 G17 G3 X24. Y32.344 I0. J-0.3
N90 G1 Y12.5
N95 X29.
N100 G2 X30.5 Y11. I0. J-1.5
N105 G1 Y0.
N110 G2 X29. Y-1.5 I-1.5 J0.
N115 G1 X0.
N120 G2 X-1.5 Y0. I0. J1.5
N125 G1 Y11.
N130 G2 X0. Y12.5 I1.5 J0.
N135 G1 X5.
N140 Y33.67
N145 G2 X5.03 Y134.117 I249. J50.15
N150 X5.114 Y134.394 I1.47 J-0.297
N155 X23.886 I9.386 J-3.887
N160 X23.97 Y134.117 I-1.386 J-0.574
N165 X24. Y33.67 I-248.97 J-50.297
N170 G1 Y32.344
N175 G3 X24.3 Y32.044 I0.3 J0.
N180 G1 X24.6
N185 G18 G2 X24.9 Z-3.7 I0. K0.3
N190 G0 Z15.
N195 G17
N200 M9
N205 G53 G0 Z0.
N210 G53 G0 X0. Y0.
N215 M30
%
