%
(PUENTE)
(T50 D=12. CR=0. - ZMIN=-13.7 - FLAT END MILL)
N10 G90 G94 G17 G91.1
N15 G21
N20 G53 G0 Z0.
(2D ADAPTIVE2 5)
N25 T50 M6
N30 S2021 M3
N35 G17 G90 G94
N40 G54
N45 M8
N50 G0 X-15.86 Y-63.17
N55 G43 Z15. H50
N60 G0 Z5.
N65 Z-10.5
N70 G1 Z-11.7 F1232.16
N75 Z-13.7
N80 G3 X-14. Y-56.837 I-11.431 J6.797
N85 G1 Y-56.756
N90 X-14.872 Y-55.781
N95 X-15.592 Y-54.691
N100 X-16.174 Y-53.52
N105 X-16.633 Y-52.296
N110 X-16.989 Y-51.038
N115 X-17.259 Y-49.759
N120 X-17.462 Y-48.467
N125 X-17.611 Y-47.169
N130 X-17.721 Y-45.866
N135 X-17.8 Y-44.561
N140 X-17.858 Y-43.255
N145 X-17.899 Y-41.948
N150 X-17.928 Y-40.641
N155 X-17.949 Y-39.334
N160 X-17.964 Y-38.027
N165 X-17.974 Y-36.72
N170 X-17.982 Y-35.413
N175 X-17.987 Y-34.105
N180 X-17.991 Y-32.798
N185 X-17.995 Y-30.183
N190 X-17.998 Y-26.262
N195 X-18. Y-15.803
N200 Y-6.652
N205 Y44.332
N210 Y46.946
N215 X-17.813 Y48.24
N220 X-17.303 Y49.444
N225 X-16.551 Y50.513
N230 X-15.781 Y51.272
N235 X-15.482 Y51.609
N240 X-15.231 Y51.984
N245 X-15.035 Y52.39
N250 X-14.975 Y52.537
N255 X-14.802 Y52.897
N260 X-14.603 Y53.257
N265 X-14.399 Y53.617
N270 X-14.295 Y53.765
N275 X-13.834 Y54.336
N280 X-13.575 Y54.611
N285 X-13.491 Y54.696
N290 X-13.215 Y54.93
N295 X-12.856 Y55.232
N300 X-12.58 Y55.416
N305 X-11.776 Y55.876
N310 X-11.416 Y56.032
N315 X-11.133 Y56.136
N320 X-11.056 Y56.163
N325 X-10.696 Y56.259
N330 X-10.336 Y56.348
N335 X-9.977 Y56.416
N340 X-9.617 Y56.455
N345 X-9.257 Y56.493
N350 X-8.537 Y56.499
N355 X-8.177 Y56.5
N360 X783.177
N365 X783.537 Y56.499
N370 X784.257 Y56.493
N375 X784.617 Y56.455
N380 X784.977 Y56.416
N385 X785.336 Y56.348
N390 X785.696 Y56.259
N395 X786.056 Y56.163
N400 X786.133 Y56.136
N405 X786.416 Y56.032
N410 X786.776 Y55.876
N415 X787.581 Y55.416
N420 X787.856 Y55.232
N425 X788.215 Y54.93
N430 X788.491 Y54.696
N435 X788.575 Y54.611
N440 X789.519 Y53.706
N445 X790.303 Y52.66
N450 X790.942 Y51.519
N455 X791.451 Y50.315
N460 X791.849 Y49.07
N465 X792.153 Y47.799
N470 X792.382 Y46.512
N475 X792.553 Y45.215
N480 X792.678 Y43.914
N485 X792.769 Y42.61
N490 X792.835 Y41.304
N495 X792.883 Y39.998
N500 X792.917 Y38.691
N505 X792.941 Y37.384
N510 X792.958 Y36.077
N515 X792.97 Y34.77
N520 X792.979 Y33.462
N525 X792.985 Y32.155
N530 X792.989 Y30.848
N535 X792.995 Y28.233
N540 X792.998 Y24.312
N545 X793. Y15.161
N550 Y4.702
N555 Y-46.282
N560 Y-47.589
N565 X792.643 Y-48.847
N570 X792.006 Y-49.988
N575 X791.158 Y-50.983
N580 X790.946 Y-51.162
N585 X790.654 Y-51.439
N590 X790.398 Y-51.75
N595 X790.182 Y-52.09
N600 X790.009 Y-52.454
N605 X789.975 Y-52.537
N610 X789.802 Y-52.897
N615 X789.603 Y-53.257
N620 X789.399 Y-53.617
N625 X789.295 Y-53.765
N630 X788.834 Y-54.336
N635 X788.575 Y-54.611
N640 X788.491 Y-54.696
N645 X788.215 Y-54.93
N650 X787.856 Y-55.232
N655 X787.581 Y-55.416
N660 X786.776 Y-55.876
N665 X786.416 Y-56.032
N670 X786.133 Y-56.136
N675 X786.056 Y-56.163
N680 X785.696 Y-56.259
N685 X785.336 Y-56.348
N690 X784.977 Y-56.416
N695 X784.617 Y-56.455
N700 X784.257 Y-56.493
N705 X783.537 Y-56.499
N710 X783.177 Y-56.5
N715 X338.018
N720 X337.298 Y-56.489
N725 X336.938 Y-56.465
N730 X336.578 Y-56.419
N735 X336.219 Y-56.367
N740 X335.499 Y-56.177
N745 X335.36 Y-56.136
N750 X335.139 Y-56.055
N755 X334.876 Y-55.96
N760 X334.438 Y-55.822
N765 X333.888 Y-55.674
N770 X333.182 Y-55.517
N775 X332.244 Y-55.352
N780 X330.948 Y-55.18
N785 X329.646 Y-55.065
N790 X328.341 Y-54.985
N795 X327.035 Y-54.93
N800 X325.728 Y-54.891
N805 X324.421 Y-54.864
N810 X323.114 Y-54.845
N815 X321.807 Y-54.832
N820 X320.5 Y-54.823
N825 X319.193 Y-54.816
N830 X317.885 Y-54.811
N835 X315.271 Y-54.806
N840 X311.349 Y-54.802
N845 X303.505 Y-54.8
N850 X285.203
N855 X234.219
N860 X198.002
N865 X197.515 Y-54.836
N870 X197.039 Y-54.944
N875 X196.584 Y-55.12
N880 X196.159 Y-55.362
N885 X196.079 Y-55.416
N890 X195.869 Y-55.555
N895 X195.149 Y-55.924
N900 X194.79 Y-56.077
N905 X194.43 Y-56.196
N910 X194.07 Y-56.297
N915 X193.71 Y-56.37
N920 X193.35 Y-56.44
N925 X192.561 Y-56.496
N930 X192.27 Y-56.5
N935 X-8.177
N940 X-8.537 Y-56.499
N945 X-9.257 Y-56.493
N950 X-9.617 Y-56.455
N955 X-9.977 Y-56.416
N960 X-10.336 Y-56.348
N965 X-10.696 Y-56.259
N970 X-11.056 Y-56.163
N975 X-11.133 Y-56.136
N980 X-11.416 Y-56.032
N985 X-11.776 Y-55.876
N990 X-12.58 Y-55.416
N995 X-12.856 Y-55.232
N1000 X-13.215 Y-54.93
N1005 X-13.491 Y-54.696
N1010 X-13.575 Y-54.611
N1015 X-13.834 Y-54.336
N1020 X-14.295 Y-53.765
N1025 X-14.399 Y-53.617
N1030 X-14.603 Y-53.257
N1035 X-14.802 Y-52.897
N1040 X-14.975 Y-52.537
N1045 X-15.121 Y-52.177
N1050 X-15.233 Y-51.818
N1055 X-15.401 Y-51.098
N1060 X-15.443 Y-50.738
N1065 X-15.478 Y-50.378
N1070 X-15.496 Y-50.018
N1075 X-15.639 Y-47.408
N1080 X-15.705 Y-46.102
N1085 X-15.764 Y-44.796
N1090 X-15.813 Y-43.49
N1095 X-15.853 Y-42.183
N1100 X-15.886 Y-40.876
N1105 X-15.912 Y-39.569
N1110 X-15.933 Y-38.262
N1115 X-15.949 Y-36.955
N1120 X-15.961 Y-35.648
N1125 X-15.971 Y-34.34
N1130 X-15.978 Y-33.033
N1135 X-15.984 Y-31.726
N1140 X-15.988 Y-30.419
N1145 X-15.993 Y-27.804
N1150 X-15.997 Y-23.882
N1155 X-16. Y-16.038
N1160 Y0.956
N1165 Y42.789
N1170 X-15.893 Y44.092
N1175 X-15.611 Y45.369
N1180 X-15.55 Y45.598
N1185 X-15.512 Y45.831
N1190 X-15.5 Y46.068
N1195 Y49.299
N1200 X-15.496 Y50.018
N1205 X-15.478 Y50.378
N1210 G3 X-16.062 Y51.426 I-1.2 J0.018
N1215 X-17.441 Y51.004 I-0.499 J-0.833
N1220 X-16.135 Y47.085 I2.717 J-1.272
N1225 G2 X-15.5 Y46.068 I-0.564 J-1.059
N1230 G1 Y-49.299 F1108.95
N1235 X-15.496 Y-50.018
N1240 X-15.949 Y-50.66 F1232.16
N1245 X-17.271 Y-52.537
N1250 G3 X-17.174 Y-55.838 I1.925 J-1.595
N1255 G1 X-14.782 Y-57.935
N1260 X-12.807 Y-59.014
N1265 X-11.776 Y-59.388
N1270 X-10.311 Y-59.734
N1275 X-6.018 Y-59.806
N1280 X334.419 Y-59.06
N1285 G3 X335.284 Y-56.136 I0.027 J1.582
N1290 G1 X335.139 Y-56.055
N1295 X334.779 Y-55.895
N1300 X334.537 Y-55.776
N1305 X333.934 Y-55.416
N1310 X333.699 Y-55.272
N1315 X333.656 Y-55.236
N1320 X333.482 Y-55.105
N1325 X333.303 Y-54.982
N1330 X333.113 Y-54.863
N1335 X332.881 Y-54.732
N1340 X332.594 Y-54.585
N1345 X332.273 Y-54.439
N1350 X331.884 Y-54.281
N1355 X331.417 Y-54.115
N1360 X330.854 Y-53.942
N1365 X330.165 Y-53.763
N1370 X329.29 Y-53.576
N1375 X328.149 Y-53.383
N1380 X326.852 Y-53.221
N1385 X325.55 Y-53.106
N1390 X324.245 Y-53.022
N1395 X322.939 Y-52.962
N1400 X321.633 Y-52.918
N1405 X320.326 Y-52.886
N1410 X319.019 Y-52.863
N1415 X317.712 Y-52.846
N1420 X316.404 Y-52.833
N1425 X315.097 Y-52.824
N1430 X313.79 Y-52.818
N1435 X312.483 Y-52.813
N1440 X309.868 Y-52.807
N1445 X305.946 Y-52.803
N1450 X298.102 Y-52.8
N1455 X283.722
N1460 X232.738
N1465 X201.363
N1470 X200.414 Y-52.816
N1475 X199.928 Y-52.845
N1480 X199.477 Y-52.904
N1485 X199.038 Y-53.024
N1490 X198.621 Y-53.203
N1495 X198.231 Y-53.438
N1500 X197.878 Y-53.724
N1505 X197.568 Y-54.056
N1510 G3 X197.324 Y-54.756 I0.956 J-0.725
N1515 X197.559 Y-55.001 I0.24 J-0.005
N1520 G2 X197.597 Y-55.335 I-0.003 J-0.169
N1525 G1 X197.554 Y-55.34
N1530 X197.511 Y-55.332
N1535 X197.472 Y-55.312
N1540 X197.44 Y-55.283
N1545 X197.418 Y-55.245
N1550 G2 X197.568 Y-54.056 I1.106 J0.465
N1555 G1 X197.632 Y-53.977 F1108.95
N1560 X197.895 Y-53.617
N1565 X198.028 Y-53.394
N1570 X198.07 Y-53.319
N1575 X198.15 Y-53.191
N1580 X198.237 Y-53.069
N1585 X198.334 Y-52.955
N1590 X198.439 Y-52.848
N1595 X198.552 Y-52.749
N1600 X198.671 Y-52.658
N1605 X198.795 Y-52.573
N1610 X198.932 Y-52.487
N1615 X199.103 Y-52.391
N1620 X199.301 Y-52.29
N1625 X199.544 Y-52.18
N1630 X199.844 Y-52.059
N1635 X200.214 Y-51.929
N1640 X200.675 Y-51.789
N1645 X201.256 Y-51.639
N1650 X202.007 Y-51.48
N1655 X203.013 Y-51.313
N1660 X204.311 Y-51.154
N1665 X205.614 Y-51.047
N1670 X206.919 Y-50.973
N1675 X208.225 Y-50.921
N1680 X209.532 Y-50.885
N1685 X210.839 Y-50.86
N1690 X212.146 Y-50.843
N1695 X213.454 Y-50.83
N1700 X214.761 Y-50.821
N1705 X216.068 Y-50.815
N1710 X217.375 Y-50.811
N1715 X219.99 Y-50.805
N1720 X223.912 Y-50.802
N1725 X233.063 Y-50.8
N1730 X248.75
N1735 X298.427 Y-50.801
N1740 X299.734
N1745 X304.964 Y-50.803
N1750 X308.885 Y-50.807
N1755 X311.5 Y-50.813
N1760 X312.807 Y-50.818
N1765 X314.115 Y-50.825
N1770 X315.422 Y-50.834
N1775 X316.729 Y-50.847
N1780 X318.036 Y-50.864
N1785 X319.343 Y-50.888
N1790 X320.65 Y-50.921
N1795 X321.957 Y-50.965
N1800 X323.263 Y-51.025
N1805 X324.567 Y-51.108
N1810 X325.87 Y-51.219
N1815 X327.169 Y-51.369
N1820 X328.356 Y-51.55
N1825 X329.319 Y-51.741
N1830 X329.929 Y-51.89
N1835 X330.352 Y-52.023
N1840 X330.753 Y-52.212
N1845 X331.125 Y-52.453
N1850 X331.462 Y-52.742
N1855 X331.756 Y-53.074
N1860 X332.004 Y-53.442
N1865 G2 X332.134 Y-54.172 I-1.059 J-0.565 F1232.16
N1870 X331.863 Y-54.376 I-0.238 J0.033
N1875 G3 X331.773 Y-54.7 I-0.023 J-0.168
N1880 G1 X331.815 Y-54.711
N1885 X331.859
N1890 X331.9 Y-54.697
N1895 X331.936 Y-54.673
N1900 X331.964 Y-54.64
N1905 G3 X332.004 Y-53.442 I-1.019 J0.633
N1910 G1 X331.897 Y-53.257
N1915 X331.698 Y-52.897
N1920 X331.54 Y-52.564
N1925 X331.53 Y-52.537
N1930 X331.47 Y-52.4
N1935 X331.398 Y-52.268
N1940 X331.314 Y-52.144
N1945 X331.222 Y-52.026
N1950 X331.121 Y-51.914
N1955 X331.015 Y-51.808
N1960 X330.898 Y-51.702
N1965 X330.75 Y-51.578
N1970 X330.58 Y-51.448
N1975 X330.388 Y-51.314
N1980 X330.15 Y-51.163
N1985 X329.873 Y-51.004
N1990 X329.561 Y-50.843
N1995 X329.173 Y-50.662
N2000 X328.741 Y-50.484
N2005 X328.207 Y-50.29
N2010 X327.588 Y-50.096
N2015 X326.819 Y-49.891
N2020 X325.866 Y-49.681
N2025 X324.652 Y-49.468
N2030 X323.355 Y-49.298
N2035 X322.054 Y-49.172
N2040 X320.75 Y-49.078
N2045 X319.445 Y-49.008
N2050 X318.139 Y-48.956
N2055 X316.832 Y-48.917
N2060 X315.525 Y-48.887
N2065 X314.218 Y-48.865
N2070 X312.911 Y-48.849
N2075 X311.603 Y-48.836
N2080 X310.296 Y-48.827
N2085 X308.989 Y-48.82
N2090 X307.682 Y-48.815
N2095 X305.067 Y-48.808
N2100 X301.145 Y-48.803
N2105 X294.609 Y-48.801
N2110 X281.536 Y-48.8
N2115 X230.552
N2120 X224.015 Y-48.803
N2125 X221.401 Y-48.805
N2130 X218.786 Y-48.81
N2135 X217.479 Y-48.814
N2140 X216.172 Y-48.82
N2145 X214.864 Y-48.828
N2150 X213.557 Y-48.84
N2155 X212.25 Y-48.856
N2160 X210.943 Y-48.88
N2165 X209.636 Y-48.913
N2170 X208.33 Y-48.959
N2175 X207.024 Y-49.025
N2180 X205.72 Y-49.12
N2185 X204.419 Y-49.251
N2190 X203.283 Y-49.411
N2195 X202.399 Y-49.574
N2200 X201.699 Y-49.736
N2205 X201.128 Y-49.894
N2210 X200.65 Y-50.049
N2215 X200.607 Y-50.065
N2220 X200.17 Y-50.266
N2225 X199.766 Y-50.528
N2230 X199.405 Y-50.846
N2235 X199.094 Y-51.213
N2240 X198.84 Y-51.621
N2245 X198.647 Y-52.062
N2250 G3 X198.655 Y-52.804 I1.145 J-0.358
N2255 X198.96 Y-52.955 I0.227 J0.077
N2260 G2 X199.108 Y-53.256 I0.054 J-0.161
N2265 G1 X199.069 Y-53.275
N2270 X199.026 Y-53.282
N2275 X198.983 Y-53.277
N2280 X198.942 Y-53.26
N2285 X198.909 Y-53.232
N2290 G2 X198.647 Y-52.062 I0.884 J0.812
N2295 G1 X198.733 Y-51.818 F1108.95
N2300 X198.901 Y-51.098
N2305 X198.936 Y-50.952
N2310 X198.985 Y-50.81
N2315 X199.044 Y-50.672
N2320 X199.114 Y-50.54
N2325 X199.193 Y-50.412
N2330 X199.279 Y-50.289
N2335 X199.372 Y-50.172
N2340 X199.471 Y-50.059
N2345 X199.587 Y-49.939
N2350 X199.717 Y-49.816
N2355 X199.87 Y-49.682
N2360 X200.051 Y-49.539
N2365 X200.249 Y-49.394
N2370 X200.495 Y-49.231
N2375 X200.755 Y-49.075
N2380 X201.071 Y-48.903
N2385 X201.438 Y-48.724
N2390 X201.848 Y-48.545
N2395 X202.353 Y-48.35
N2400 X202.922 Y-48.159
N2405 X203.62 Y-47.957
N2410 X204.471 Y-47.751
N2415 X205.524 Y-47.545
N2420 X206.816 Y-47.349
N2425 X208.115 Y-47.205
N2430 X209.418 Y-47.099
N2435 X210.723 Y-47.021
N2440 X212.029 Y-46.963
N2445 X213.336 Y-46.92
N2450 X214.643 Y-46.889
N2455 X215.95 Y-46.865
N2460 X217.257 Y-46.848
N2465 X218.564 Y-46.835
N2470 X219.872 Y-46.826
N2475 X221.179 Y-46.819
N2480 X222.486 Y-46.814
N2485 X225.101 Y-46.807
N2490 X229.023 Y-46.803
N2495 X235.559 Y-46.801
N2500 X248.632 Y-46.8
N2505 X293.08 Y-46.801
N2510 X299.616 Y-46.803
N2515 X303.538 Y-46.807
N2520 X306.152 Y-46.813
N2525 X307.46 Y-46.818
N2530 X308.767 Y-46.824
N2535 X310.074 Y-46.832
N2540 X311.381 Y-46.843
N2545 X312.689 Y-46.858
N2550 X313.996 Y-46.878
N2555 X315.303 Y-46.904
N2560 X316.61 Y-46.938
N2565 X317.916 Y-46.984
N2570 X319.222 Y-47.044
N2575 X320.527 Y-47.124
N2580 X321.83 Y-47.231
N2585 X323.129 Y-47.372
N2590 X324.424 Y-47.554
N2595 X325.569 Y-47.763
N2600 X326.493 Y-47.973
N2605 X327.29 Y-48.191
N2610 X327.949 Y-48.403
N2615 X328.523 Y-48.615
N2620 X329.014 Y-48.821
N2625 X329.443 Y-49.025
N2630 X329.847 Y-49.275
N2635 X330.21 Y-49.582
N2640 X330.525 Y-49.937
N2645 X330.786 Y-50.333
N2650 X330.987 Y-50.763
N2655 X331.125 Y-51.218
N2660 X331.26 Y-51.818
N2665 X331.393 Y-52.177
N2670 X331.53 Y-52.537
N2675 G2 X331.299 Y-53.714 I-1.136 J-0.387 F1232.16
N2680 X330.555 Y-53.669 I-0.354 J0.309
N2685 X330.73 Y-52.35 I0.827 J0.562
N2690 G3 X331.125 Y-51.218 I-0.784 J0.909
N2695 G1 X331.098 Y-51.098
N2700 X331.057 Y-50.738
N2705 X331.022 Y-50.378
N2710 X331.019 Y-50.318
N2715 X331.004 Y-50.169
N2720 X330.977 Y-50.021
N2725 X330.939 Y-49.876
N2730 X330.89 Y-49.735
N2735 X330.831 Y-49.597
N2740 X330.764 Y-49.463
N2745 X330.689 Y-49.333
N2750 X330.606 Y-49.207
N2755 X330.514 Y-49.08
N2760 X330.409 Y-48.947
N2765 X330.283 Y-48.802
N2770 X330.137 Y-48.649
N2775 X329.97 Y-48.487
N2780 X329.775 Y-48.314
N2785 X329.557 Y-48.137
N2790 X329.296 Y-47.944
N2795 X329.015 Y-47.753
N2800 X328.671 Y-47.542
N2805 X328.309 Y-47.34
N2810 X327.856 Y-47.113
N2815 X327.379 Y-46.9
N2820 X326.78 Y-46.662
N2825 X326.122 Y-46.434
N2830 X325.317 Y-46.193
N2835 X324.35 Y-45.95
N2840 X323.175 Y-45.707
N2845 X321.885 Y-45.499
N2850 X320.587 Y-45.339
N2855 X319.286 Y-45.215
N2860 X317.982 Y-45.119
N2865 X316.677 Y-45.046
N2870 X315.371 Y-44.989
N2875 X314.064 Y-44.945
N2880 X312.757 Y-44.911
N2885 X311.45 Y-44.885
N2890 X310.143 Y-44.865
N2895 X308.836 Y-44.849
N2900 X307.529 Y-44.837
N2905 X306.222 Y-44.828
N2910 X304.914 Y-44.822
N2915 X303.607 Y-44.816
N2920 X300.993 Y-44.809
N2925 X298.378 Y-44.805
N2930 X293.149 Y-44.802
N2935 X282.691 Y-44.8
N2940 X236.936 Y-44.801
N2945 X231.706 Y-44.802
N2950 X227.785 Y-44.805
N2955 X225.17 Y-44.81
N2960 X223.863 Y-44.813
N2965 X222.555 Y-44.818
N2970 X221.248 Y-44.824
N2975 X219.941 Y-44.833
N2980 X218.634 Y-44.845
N2985 X217.326 Y-44.861
N2990 X216.019 Y-44.882
N2995 X214.712 Y-44.911
N3000 X213.406 Y-44.95
N3005 X212.099 Y-45.002
N3010 X210.794 Y-45.072
N3015 X209.49 Y-45.164
N3020 X208.189 Y-45.288
N3025 X206.891 Y-45.451
N3030 X205.665 Y-45.652
N3035 X204.664 Y-45.862
N3040 X203.812 Y-46.08
N3045 X203.099 Y-46.295
N3050 X202.474 Y-46.513
N3055 X201.941 Y-46.726
N3060 X201.467 Y-46.94
N3065 X201.058 Y-47.147
N3070 X200.693 Y-47.351
N3075 X200.553 Y-47.438
N3080 X200.183 Y-47.704
N3085 X199.853 Y-48.018
N3090 X199.57 Y-48.374
N3095 X199.339 Y-48.767
N3100 X199.163 Y-49.187
N3105 X199.048 Y-49.627
N3110 X198.993 Y-50.079
N3115 X198.978 Y-50.378
N3120 X198.943 Y-50.738
N3125 X198.901 Y-51.098
N3130 G3 X199.416 Y-52.181 I1.196 J-0.095
N3135 X200.037 Y-51.758 I0.228 J0.331
N3140 X199.577 Y-51.127 I-0.974 J-0.226
N3145 G2 X198.993 Y-50.079 I0.617 J1.029
N3150 G1 X198.996 Y-50.018 F1108.95
N3155 X199. Y-49.299
N3160 Y-48.939
N3165 X199.008 Y-48.776
N3170 X199.022 Y-48.626
N3175 X199.049 Y-48.479
N3180 X199.085 Y-48.333
N3185 X199.132 Y-48.191
N3190 X199.187 Y-48.051
N3195 X199.25 Y-47.915
N3200 X199.32 Y-47.782
N3205 X199.396 Y-47.653
N3210 X199.49 Y-47.51
N3215 X199.593 Y-47.366
N3220 X199.72 Y-47.204
N3225 X199.858 Y-47.043
N3230 X200.026 Y-46.863
N3235 X200.208 Y-46.685
N3240 X200.426 Y-46.489
N3245 X200.662 Y-46.295
N3250 X200.941 Y-46.085
N3255 X201.247 Y-45.875
N3260 X201.604 Y-45.652
N3265 X201.998 Y-45.429
N3270 X202.454 Y-45.198
N3275 X202.965 Y-44.965
N3280 X203.559 Y-44.725
N3285 X204.252 Y-44.479
N3290 X205.04 Y-44.238
N3295 X205.996 Y-43.99
N3300 X207.153 Y-43.743
N3305 X208.442 Y-43.527
N3310 X209.739 Y-43.359
N3315 X211.04 Y-43.23
N3320 X212.343 Y-43.13
N3325 X213.648 Y-43.053
N3330 X214.954 Y-42.993
N3335 X216.261 Y-42.947
N3340 X217.567 Y-42.912
N3345 X218.874 Y-42.885
N3350 X220.182 Y-42.864
N3355 X221.489 Y-42.849
N3360 X222.796 Y-42.837
N3365 X224.103 Y-42.828
N3370 X225.41 Y-42.821
N3375 X226.718 Y-42.816
N3380 X229.332 Y-42.809
N3385 X231.947 Y-42.805
N3390 X237.176 Y-42.802
N3395 X247.634 Y-42.8
N3400 X288.16 Y-42.801
N3405 X294.697 Y-42.803
N3410 X298.618 Y-42.807
N3415 X301.233 Y-42.812
N3420 X302.54 Y-42.816
N3425 X303.848 Y-42.821
N3430 X305.155 Y-42.828
N3435 X306.462 Y-42.837
N3440 X307.769 Y-42.848
N3445 X309.077 Y-42.863
N3450 X310.384 Y-42.883
N3455 X311.691 Y-42.908
N3460 X312.998 Y-42.941
N3465 X314.304 Y-42.983
N3470 X315.61 Y-43.038
N3475 X316.916 Y-43.108
N3480 X318.22 Y-43.198
N3485 X319.522 Y-43.313
N3490 X320.821 Y-43.458
N3495 X322.115 Y-43.643
N3500 X323.402 Y-43.876
N3505 X324.492 Y-44.122
N3510 X325.409 Y-44.371
N3515 X326.215 Y-44.628
N3520 X326.903 Y-44.882
N3525 X327.517 Y-45.138
N3530 X328.046 Y-45.387
N3535 X328.522 Y-45.637
N3540 X328.936 Y-45.877
N3545 X329.308 Y-46.116
N3550 X329.634 Y-46.345
N3555 X329.715 Y-46.407
N3560 X330.088 Y-46.743
N3565 X330.406 Y-47.132
N3570 X330.661 Y-47.564
N3575 X330.848 Y-48.03
N3580 X330.962 Y-48.519
N3585 X331. Y-49.02
N3590 Y-49.299
N3595 X331.004 Y-50.018
N3600 X331.019 Y-50.318
N3605 G2 X330.435 Y-51.366 I-1.2 J-0.018 F1232.16
N3610 X329.853 Y-51.104 I-0.2 J0.334
N3615 X330.365 Y-50.037 I0.983 J0.185
N3620 G3 X331. Y-49.02 I-0.565 J1.059
N3625 G1 Y-47.674
N3630 X330.992 Y-47.525
N3635 X330.975 Y-47.376
N3640 X330.945 Y-47.229
N3645 X330.906 Y-47.084
N3650 X330.858 Y-46.942
N3655 X330.801 Y-46.803
N3660 X330.738 Y-46.667
N3665 X330.665 Y-46.526
N3670 X330.576 Y-46.373
N3675 X330.475 Y-46.214
N3680 X330.351 Y-46.039
N3685 X330.215 Y-45.861
N3690 X330.05 Y-45.664
N3695 X329.871 Y-45.469
N3700 X329.654 Y-45.252
N3705 X329.421 Y-45.039
N3710 X329.143 Y-44.806
N3715 X328.841 Y-44.574
N3720 X328.489 Y-44.328
N3725 X328.096 Y-44.077
N3730 X327.655 Y-43.822
N3735 X327.141 Y-43.554
N3740 X326.587 Y-43.295
N3745 X325.909 Y-43.013
N3750 X325.182 Y-42.748
N3755 X324.305 Y-42.47
N3760 X323.269 Y-42.191
N3765 X322.029 Y-41.913
N3770 X320.742 Y-41.684
N3775 X319.447 Y-41.501
N3780 X318.148 Y-41.355
N3785 X316.846 Y-41.238
N3790 X315.542 Y-41.146
N3795 X314.237 Y-41.072
N3800 X312.931 Y-41.013
N3805 X311.625 Y-40.967
N3810 X310.318 Y-40.931
N3815 X309.011 Y-40.902
N3820 X307.704 Y-40.879
N3825 X306.397 Y-40.862
N3830 X305.089 Y-40.848
N3835 X303.782 Y-40.837
N3840 X302.475 Y-40.828
N3845 X301.168 Y-40.822
N3850 X299.86 Y-40.817
N3855 X297.246 Y-40.81
N3860 X293.324 Y-40.804
N3865 X288.095 Y-40.801
N3870 X282.866 Y-40.8
N3875 X243.647
N3880 X235.803 Y-40.803
N3885 X231.881 Y-40.806
N3890 X229.267 Y-40.811
N3895 X227.96 Y-40.815
N3900 X226.652 Y-40.82
N3905 X225.345 Y-40.827
N3910 X224.038 Y-40.835
N3915 X222.731 Y-40.846
N3920 X221.423 Y-40.861
N3925 X220.116 Y-40.881
N3930 X218.809 Y-40.906
N3935 X217.502 Y-40.939
N3940 X216.196 Y-40.981
N3945 X214.89 Y-41.036
N3950 X213.584 Y-41.107
N3955 X212.28 Y-41.197
N3960 X210.978 Y-41.312
N3965 X209.679 Y-41.459
N3970 X208.385 Y-41.645
N3975 X207.105 Y-41.876
N3980 X205.972 Y-42.132
N3985 X205.037 Y-42.387
N3990 X204.2 Y-42.654
N3995 X203.482 Y-42.919
N4000 X202.844 Y-43.186
N4005 X202.276 Y-43.453
N4010 X201.777 Y-43.715
N4015 X201.327 Y-43.977
N4020 X200.931 Y-44.231
N4025 X200.574 Y-44.482
N4030 X200.257 Y-44.727
N4035 X200.172 Y-44.798
N4040 X199.83 Y-45.132
N4045 X199.54 Y-45.512
N4050 X199.307 Y-45.93
N4055 X199.138 Y-46.377
N4060 X199.035 Y-46.844
N4065 X199. Y-47.321
N4070 Y-48.939
N4075 G3 X199.635 Y-49.956 I1.199 J0.042
N4080 G1 X199.685 Y-49.975
N4085 X199.738 Y-49.98
N4090 X199.791 Y-49.972
N4095 X199.839 Y-49.951
N4100 X199.881 Y-49.917
N4105 G3 X199.635 Y-48.338 I-0.717 J0.697
N4110 G2 X199. Y-47.321 I0.564 J1.059
N4115 G1 Y-46. F1108.95
N4120 X199.008 Y-45.85
N4125 X199.023 Y-45.701
N4130 X199.051 Y-45.554
N4135 X199.088 Y-45.408
N4140 X199.134 Y-45.266
N4145 X199.188 Y-45.126
N4150 X199.25 Y-44.985
N4155 X199.323 Y-44.84
N4160 X199.411 Y-44.68
N4165 X199.514 Y-44.512
N4170 X199.635 Y-44.332
N4175 X199.777 Y-44.14
N4180 X199.936 Y-43.943
N4185 X200.126 Y-43.727
N4190 X200.332 Y-43.513
N4195 X200.58 Y-43.277
N4200 X200.845 Y-43.046
N4205 X201.159 Y-42.795
N4210 X201.503 Y-42.544
N4215 X201.896 Y-42.282
N4220 X202.346 Y-42.01
N4225 X202.831 Y-41.745
N4230 X203.418 Y-41.456
N4235 X204.029 Y-41.188
N4240 X204.772 Y-40.9
N4245 X205.623 Y-40.612
N4250 X206.587 Y-40.332
N4255 X207.747 Y-40.049
N4260 X209.03 Y-39.794
N4265 X210.321 Y-39.59
N4270 X211.618 Y-39.426
N4275 X212.919 Y-39.295
N4280 X214.222 Y-39.191
N4285 X215.526 Y-39.107
N4290 X216.832 Y-39.041
N4295 X218.138 Y-38.989
N4300 X219.445 Y-38.947
N4305 X220.752 Y-38.915
N4310 X222.059 Y-38.889
N4315 X223.366 Y-38.869
N4320 X224.673 Y-38.853
N4325 X225.98 Y-38.841
N4330 X227.287 Y-38.832
N4335 X228.595 Y-38.824
N4340 X229.902 Y-38.819
N4345 X231.209 Y-38.814
N4350 X233.824 Y-38.808
N4355 X237.746 Y-38.804
N4360 X244.282 Y-38.801
N4365 X246.897
N4370 X282.193
N4375 X290.037 Y-38.803
N4380 X293.959 Y-38.806
N4385 X296.574 Y-38.811
N4390 X297.881 Y-38.814
N4395 X299.188 Y-38.818
N4400 X300.495 Y-38.823
N4405 X301.803 Y-38.83
N4410 X303.11 Y-38.839
N4415 X304.417 Y-38.85
N4420 X305.724 Y-38.864
N4425 X307.031 Y-38.883
N4430 X308.339 Y-38.906
N4435 X309.646 Y-38.936
N4440 X310.952 Y-38.973
N4445 X312.259 Y-39.02
N4450 X313.565 Y-39.08
N4455 X314.87 Y-39.154
N4460 X316.174 Y-39.247
N4465 X317.476 Y-39.363
N4470 X318.775 Y-39.506
N4475 X320.071 Y-39.684
N4480 X321.36 Y-39.901
N4485 X322.64 Y-40.165
N4490 X323.751 Y-40.443
N4495 X324.717 Y-40.73
N4500 X325.586 Y-41.03
N4505 X326.328 Y-41.323
N4510 X327. Y-41.622
N4515 X327.596 Y-41.919
N4520 X328.12 Y-42.21
N4525 X328.597 Y-42.503
N4530 X329.016 Y-42.785
N4535 X329.393 Y-43.063
N4540 X329.729 Y-43.336
N4545 X329.885 Y-43.474
N4550 X330.211 Y-43.806
N4555 X330.488 Y-44.18
N4560 X330.708 Y-44.59
N4565 X330.869 Y-45.027
N4570 X330.967 Y-45.482
N4575 X331. Y-45.946
N4580 Y-47.674
N4585 G2 X330.365 Y-48.692 I-1.199 J0.042 F1232.16
N4590 G1 X330.343 Y-48.699
N4595 X330.319 Y-48.698
N4600 X330.298 Y-48.689
N4605 G2 X330.365 Y-46.964 I0.538 J0.843
N4610 G3 X331. Y-45.946 I-0.564 J1.059
N4615 G1 Y-44.621
N4620 X330.992 Y-44.471
N4625 X330.976 Y-44.322
N4630 X330.949 Y-44.174
N4635 X330.911 Y-44.029
N4640 X330.865 Y-43.886
N4645 X330.812 Y-43.746
N4650 X330.748 Y-43.596
N4655 X330.673 Y-43.442
N4660 X330.58 Y-43.27
N4665 X330.473 Y-43.091
N4670 X330.345 Y-42.897
N4675 X330.197 Y-42.692
N4680 X330.029 Y-42.479
N4685 X329.829 Y-42.248
N4690 X329.61 Y-42.016
N4695 X329.347 Y-41.76
N4700 X329.067 Y-41.51
N4705 X328.731 Y-41.236
N4710 X328.369 Y-40.966
N4715 X327.949 Y-40.68
N4720 X327.472 Y-40.385
N4725 X326.954 Y-40.096
N4730 X326.334 Y-39.783
N4735 X325.68 Y-39.488
N4740 X324.897 Y-39.176
N4745 X323.985 Y-38.857
N4750 X322.948 Y-38.544
N4755 X321.727 Y-38.233
N4760 X320.448 Y-37.965
N4765 X319.159 Y-37.746
N4770 X317.864 Y-37.566
N4775 X316.565 Y-37.419
N4780 X315.263 Y-37.298
N4785 X313.96 Y-37.201
N4790 X312.655 Y-37.121
N4795 X311.349 Y-37.057
N4800 X310.043 Y-37.005
N4805 X308.736 Y-36.963
N4810 X307.43 Y-36.93
N4815 X306.122 Y-36.903
N4820 X304.815 Y-36.881
N4825 X303.508 Y-36.864
N4830 X302.201 Y-36.85
N4835 X300.894 Y-36.839
N4840 X299.586 Y-36.831
N4845 X298.279 Y-36.824
N4850 X296.972 Y-36.819
N4855 X294.357 Y-36.811
N4860 X291.743 Y-36.807
N4865 X287.821 Y-36.803
N4870 X282.592 Y-36.801
N4875 X261.675 Y-36.8
N4880 X244.681 Y-36.801
N4885 X239.451 Y-36.803
N4890 X235.53 Y-36.807
N4895 X232.915 Y-36.812
N4900 X231.608 Y-36.816
N4905 X230.3 Y-36.821
N4910 X228.993 Y-36.827
N4915 X227.686 Y-36.835
N4920 X226.379 Y-36.846
N4925 X225.071 Y-36.859
N4930 X223.764 Y-36.876
N4935 X222.457 Y-36.898
N4940 X221.15 Y-36.925
N4945 X219.843 Y-36.96
N4950 X218.537 Y-37.005
N4955 X217.231 Y-37.06
N4960 X215.925 Y-37.13
N4965 X214.621 Y-37.218
N4970 X213.318 Y-37.327
N4975 X212.018 Y-37.462
N4980 X210.721 Y-37.629
N4985 X209.43 Y-37.833
N4990 X208.147 Y-38.081
N4995 X206.949 Y-38.362
N5000 X205.914 Y-38.652
N5005 X204.976 Y-38.96
N5010 X204.174 Y-39.262
N5015 X203.451 Y-39.571
N5020 X202.801 Y-39.883
N5025 X202.234 Y-40.186
N5030 X201.717 Y-40.492
N5035 X201.258 Y-40.792
N5040 X200.85 Y-41.083
N5045 X200.48 Y-41.373
N5050 X200.155 Y-41.652
N5055 X200.046 Y-41.754
N5060 X199.739 Y-42.083
N5065 X199.48 Y-42.451
N5070 X199.273 Y-42.85
N5075 X199.122 Y-43.274
N5080 X199.031 Y-43.715
N5085 X199. Y-44.164
N5090 Y-46.
N5095 G3 X199.635 Y-47.017 I1.199 J0.042
N5100 X200.548 Y-46.195 I0.307 J0.577
N5105 X199.635 Y-45.181 I-1.854 J-0.751
N5110 G2 X199. Y-44.164 I0.564 J1.059
N5115 G1 Y-42.821 F1108.95
N5120 X199.008 Y-42.672
N5125 X199.026 Y-42.523
N5130 X199.054 Y-42.375
N5135 X199.092 Y-42.23
N5140 X199.138 Y-42.088
N5145 X199.193 Y-41.944
N5150 X199.257 Y-41.797
N5155 X199.338 Y-41.629
N5160 X199.43 Y-41.457
N5165 X199.544 Y-41.266
N5170 X199.673 Y-41.07
N5175 X199.827 Y-40.856
N5180 X200.003 Y-40.633
N5185 X200.204 Y-40.4
N5190 X200.44 Y-40.149
N5195 X200.697 Y-39.898
N5200 X201.006 Y-39.622
N5205 X201.334 Y-39.355
N5210 X201.723 Y-39.064
N5215 X202.149 Y-38.773
N5220 X202.633 Y-38.473
N5225 X203.196 Y-38.157
N5230 X203.787 Y-37.858
N5235 X204.499 Y-37.537
N5240 X205.297 Y-37.217
N5245 X206.198 Y-36.901
N5250 X207.053 Y-36.642
N5255 X207.367 Y-36.563
N5260 X207.687 Y-36.516
N5265 X208.01 Y-36.5
N5270 X319.305
N5275 X320.503 Y-36.56
N5280 X321.227 Y-36.628
N5285 X322.003 Y-36.735
N5290 X322.792 Y-36.879
N5295 X323.577 Y-37.058
N5300 X324.347 Y-37.269
N5305 X325.084 Y-37.506
N5310 X325.784 Y-37.765
N5315 X326.445 Y-38.042
N5320 X327.06 Y-38.333
N5325 X327.62 Y-38.628
N5330 X328.127 Y-38.924
N5335 X328.594 Y-39.224
N5340 X329.018 Y-39.524
N5345 X329.394 Y-39.816
N5350 X329.737 Y-40.106
N5355 X329.939 Y-40.293
N5360 X330.25 Y-40.622
N5365 X330.513 Y-40.992
N5370 X330.723 Y-41.394
N5375 X330.876 Y-41.82
N5380 X330.969 Y-42.264
N5385 X331. Y-42.716
N5390 Y-44.621
N5395 G2 X330.365 Y-45.638 I-1.199 J0.042 F1232.16
N5400 X329.423 Y-44.824 I-0.314 J0.589
N5405 X330.365 Y-43.734 I1.883 J-0.675
N5410 G3 X331. Y-42.716 I-0.564 J1.059
N5415 G1 Y-41.382
N5420 X330.992 Y-41.232
N5425 X330.975 Y-41.083
N5430 X330.947 Y-40.936
N5435 X330.91 Y-40.791
N5440 X330.864 Y-40.648
N5445 X330.812 Y-40.507
N5450 X330.747 Y-40.353
N5455 X330.669 Y-40.188
N5460 X330.575 Y-40.011
N5465 X330.463 Y-39.82
N5470 X330.335 Y-39.621
N5475 X330.18 Y-39.403
N5480 X330.01 Y-39.185
N5485 X329.805 Y-38.943
N5490 X329.584 Y-38.705
N5495 X329.324 Y-38.447
N5500 X329.032 Y-38.183
N5505 X328.712 Y-37.917
N5510 X328.34 Y-37.635
N5515 X327.943 Y-37.36
N5520 X327.504 Y-37.083
N5525 X327.243 Y-36.934
N5530 X326.859 Y-36.747
N5535 X326.453 Y-36.61
N5540 X326.034 Y-36.528
N5545 X325.607 Y-36.5
N5550 G3 X324.858 Y-38.602 I0.042 J-1.199
N5555 G1 X329.01 Y-42.242
N5560 G3 X331. Y-41.382 I0.791 J0.902
N5565 G1 Y-40.243
N5570 X330.992 Y-40.093
N5575 X330.978 Y-39.944
N5580 X330.956 Y-39.795
N5585 X330.925 Y-39.648
N5590 X330.886 Y-39.497
N5595 X330.839 Y-39.341
N5600 X330.779 Y-39.172
N5605 X330.706 Y-38.989
N5610 X330.621 Y-38.803
N5615 X330.517 Y-38.597
N5620 X330.399 Y-38.389
N5625 X330.262 Y-38.168
N5630 X330.1 Y-37.932
N5635 X330.016 Y-37.82
N5640 X329.732 Y-37.489
N5645 X329.406 Y-37.198
N5650 X329.044 Y-36.953
N5655 X328.654 Y-36.757
N5660 X328.24 Y-36.615
N5665 X327.812 Y-36.529
N5670 X327.376 Y-36.5
N5675 G3 X326.549 Y-38.527 I0.042 J-1.199
N5680 G1 X328.932 Y-41.028
N5685 G3 X331. Y-40.243 I0.869 J0.828
N5690 G1 Y-38.863
N5695 X330.992 Y-38.713
N5700 X330.978 Y-38.564
N5705 X330.954 Y-38.416
N5710 X330.835 Y-38.023
N5715 X330.651 Y-37.655
N5720 X330.407 Y-37.324
N5725 X330.111 Y-37.039
N5730 X329.771 Y-36.808
N5735 X329.396 Y-36.639
N5740 X328.999 Y-36.535
N5745 X328.589 Y-36.5
N5750 G3 X326.465 Y-39.41 I0.08 J-2.288
N5755 X331. Y-38.863 I2.225 J0.628
N5760 G1 Y-37.897
N5765 X330.992 Y-37.747
N5770 X330.919 Y-37.459
N5775 X330.79 Y-37.192
N5780 X330.609 Y-36.957
N5785 X330.384 Y-36.764
N5790 X330.125 Y-36.619
N5795 X329.842 Y-36.53
N5800 X329.547 Y-36.5
N5805 G3 X328.297 Y-38.253 I0.047 J-1.356
N5810 X331. Y-37.897 I1.322 J0.405
N5815 G1 Y-37.784
N5820 X330.995 Y-37.604
N5825 X330.965 Y-37.424
N5830 X330.909 Y-37.252
N5835 X330.82 Y-37.08
N5840 X330.81 Y-37.064
N5845 X330.747 Y-36.974
N5850 X330.67 Y-36.885
N5855 X330.565 Y-36.785
N5860 X330.459 Y-36.704
N5865 X330.28 Y-36.605
N5870 X330.101 Y-36.541
N5875 X329.921 Y-36.507
N5880 X329.741 Y-36.5
N5885 X319.305
N5890 G3 X318.583 Y-36.773 I0.042 J-1.199
N5895 G1 X318.48 Y-36.859 Z-13.692
N5900 X318.377 Y-36.943 Z-13.67
N5905 X318.277 Y-37.025 Z-13.633
N5910 X318.181 Y-37.105 Z-13.581
N5915 X318.091 Y-37.179 Z-13.516
N5920 X318.006 Y-37.249 Z-13.438
N5925 X317.928 Y-37.313 Z-13.349
N5930 X317.859 Y-37.37 Z-13.248
N5935 X317.799 Y-37.42 Z-13.138
N5940 X317.749 Y-37.461 Z-13.021
N5945 X317.709 Y-37.494 Z-12.896
N5950 X317.68 Y-37.517 Z-12.767
N5955 X317.663 Y-37.532 Z-12.634
N5960 X317.657 Y-37.537 Z-12.5
N5965 G0 Z-11.3
N5970 X199.835 Y-44.606
N5975 G1 Z-12.5 F1232.16
N5980 X199.831 Y-44.6 Z-12.634
N5985 X199.819 Y-44.581 Z-12.767
N5990 X199.8 Y-44.549 Z-12.896
N5995 X199.774 Y-44.504 Z-13.021
N6000 X199.741 Y-44.448 Z-13.138
N6005 X199.701 Y-44.381 Z-13.248
N6010 X199.655 Y-44.304 Z-13.349
N6015 X199.604 Y-44.218 Z-13.438
N6020 X199.548 Y-44.124 Z-13.516
N6025 X199.487 Y-44.023 Z-13.581
N6030 X199.424 Y-43.916 Z-13.633
N6035 X199.358 Y-43.805 Z-13.67
N6040 X199.29 Y-43.691 Z-13.692
N6045 X199.221 Y-43.575 Z-13.7
N6050 G2 X199. Y-42.821 I1.36 J0.809
N6055 G1 Y-41.742 F1108.95
N6060 X199.009 Y-41.558
N6065 X199.023 Y-41.409
N6070 X199.046 Y-41.26
N6075 X199.077 Y-41.114
N6080 X199.115 Y-40.964
N6085 X199.162 Y-40.81
N6090 X199.223 Y-40.639
N6095 X199.295 Y-40.461
N6100 X199.38 Y-40.273
N6105 X199.485 Y-40.067
N6110 X199.602 Y-39.86
N6115 X199.744 Y-39.633
N6120 X199.902 Y-39.401
N6125 X200.085 Y-39.158
N6130 X200.3 Y-38.896
N6135 X200.533 Y-38.637
N6140 X200.807 Y-38.357
N6145 X201.109 Y-38.075
N6150 X201.45 Y-37.782
N6155 X201.848 Y-37.47
N6160 X202.268 Y-37.169
N6165 X202.47 Y-37.037
N6170 X202.887 Y-36.806
N6175 X203.333 Y-36.637
N6180 X203.798 Y-36.534
N6185 X204.274 Y-36.5
N6190 G2 X205.077 Y-38.551 I-0.042 J-1.199 F1232.16
N6195 G1 X201.044 Y-42.552
N6200 G2 X199. Y-41.742 I-0.845 J0.852
N6205 G1 Y-40.375 F1108.95
N6210 X199.01 Y-40.181
N6215 X199.024 Y-40.031
N6220 X199.046 Y-39.883
N6225 X199.075 Y-39.733
N6230 X199.113 Y-39.574
N6235 X199.162 Y-39.406
N6240 X199.225 Y-39.221
N6245 X199.297 Y-39.032
N6250 X199.387 Y-38.826
N6255 X199.493 Y-38.61
N6260 X199.616 Y-38.384
N6265 X199.763 Y-38.14
N6270 X199.922 Y-37.9
N6275 X199.953 Y-37.858
N6280 X200.237 Y-37.518
N6285 X200.565 Y-37.219
N6290 X200.93 Y-36.966
N6295 X201.325 Y-36.765
N6300 X201.744 Y-36.619
N6305 X202.178 Y-36.53
N6310 X202.621 Y-36.5
N6315 G2 X203.469 Y-38.504 I-0.042 J-1.199 F1232.16
N6320 G1 X201.09 Y-41.138
N6325 G2 X199. Y-40.375 I-0.89 J0.804
N6330 G1 Y-38.863 F1108.95
N6335 X199.008 Y-38.713
N6340 X199.022 Y-38.564
N6345 X199.045 Y-38.416
N6350 X199.164 Y-38.022
N6355 X199.348 Y-37.655
N6360 X199.592 Y-37.324
N6365 X199.888 Y-37.039
N6370 X200.228 Y-36.808
N6375 X200.602 Y-36.639
N6380 X201. Y-36.535
N6385 X201.409 Y-36.5
N6390 G2 X202.199 Y-38.565 I-0.042 J-1.199 F1232.16
N6395 G1 X201.03 Y-39.687
N6400 G2 X199. Y-38.863 I-0.831 J0.865
N6405 G1 Y-37.897 F1108.95
N6410 X199.008 Y-37.747
N6415 X199.08 Y-37.46
N6420 X199.21 Y-37.193
N6425 X199.39 Y-36.958
N6430 X199.615 Y-36.764
N6435 X199.873 Y-36.62
N6440 X200.156 Y-36.53
N6445 X200.451 Y-36.5
N6450 G2 X200.852 Y-37.573 I-0.021 J-0.62 F1232.16
N6455 G1 X200.042 Y-38.328
N6460 G2 X199. Y-37.897 I-0.423 J0.453
N6465 G1 Y-37.784 F1108.95
N6470 X199.005 Y-37.604
N6475 X199.035 Y-37.424
N6480 X199.066 Y-37.319
N6485 X199.108 Y-37.214
N6490 X199.19 Y-37.064
N6495 X199.305 Y-36.912
N6500 X199.386 Y-36.83
N6505 X199.468 Y-36.761
N6510 X199.547 Y-36.704
N6515 X199.687 Y-36.623
N6520 X199.828 Y-36.565
N6525 X200.008 Y-36.518
N6530 X200.188 Y-36.5
N6535 X208.01
N6540 X208.465 Y-36.618 F1232.16
N6545 G2 X209.544 Y-37.102 I-0.455 J-2.458
N6550 G1 X211.164 Y-38.503
N6555 X336.578 Y-59.756
N6560 X349.534 Y-59.812
N6565 X784.977 Y-59.766
N6570 X787.136 Y-59.302
N6575 X789.295 Y-58.248
N6580 X790.734 Y-57.147
N6585 X792.187 Y-55.416
N6590 X795.187 Y-51.098
N6595 X795.836 Y-49.658
N6600 X796.151 Y-48.219
N6605 X796.296 Y-46.06
N6610 X796.237 Y36.704
N6615 X796.087 Y42.462
N6620 X795.654 Y47.14
N6625 X794.758 Y50.876
N6630 X794.202 Y52.177
N6635 X791.094 Y56.513
N6640 G3 X788.855 Y56.951 I-1.331 J-0.857
N6645 X788.505 Y54.696 I0.909 J-1.296
N6650 G1 X788.575 Y54.611
N6655 X788.834 Y54.336
N6660 X789.295 Y53.765
N6665 X789.399 Y53.617
N6670 X789.603 Y53.257
N6675 X789.802 Y52.897
N6680 X789.975 Y52.537
N6685 X790.12 Y52.177
N6690 X790.233 Y51.818
N6695 X790.401 Y51.098
N6700 X790.443 Y50.738
N6705 X790.478 Y50.378
N6710 X790.496 Y50.018
N6715 X790.5 Y49.299
N6720 X790.566 Y47.993
N6725 X790.604 Y46.686
N6730 X790.657 Y45.38
N6735 X790.713 Y44.074
N6740 X790.765 Y42.768
N6745 X790.811 Y41.461
N6750 X790.851 Y40.155
N6755 X790.883 Y38.848
N6760 X790.909 Y37.541
N6765 X790.93 Y36.234
N6770 X790.946 Y34.926
N6775 X790.959 Y33.619
N6780 X790.969 Y32.312
N6785 X790.977 Y31.005
N6790 X790.982 Y29.697
N6795 X790.987 Y28.39
N6800 X790.993 Y25.776
N6805 X790.997 Y21.854
N6810 X790.999 Y15.317
N6815 X791. Y-1.677
N6820 Y-42.203
N6825 X790.991 Y-43.511
N6830 X790.782 Y-44.801
N6835 X790.626 Y-45.346
N6840 X790.556 Y-45.643
N6845 X790.514 Y-45.946
N6850 X790.5 Y-46.25
N6855 Y-49.299
N6860 X790.496 Y-50.018
N6865 X790.478 Y-50.378
N6870 G3 X791.062 Y-51.426 I1.2 J-0.018
N6875 X792.567 Y-50.87 I0.529 J0.884
N6880 X791.135 Y-47.267 I-2.844 J0.956
N6885 G2 X790.5 Y-46.25 I0.565 J1.059
N6890 G1 Y49.299 F1108.95
N6895 G2 X792.676 Y49.954 I1.199 J-0.042 F1232.16
N6900 G1 X792.754 Y49.845 Z-13.692
N6905 X792.831 Y49.737 Z-13.67
N6910 X792.906 Y49.632 Z-13.633
N6915 X792.978 Y49.53 Z-13.581
N6920 X793.047 Y49.434 Z-13.516
N6925 X793.111 Y49.345 Z-13.438
N6930 X793.169 Y49.263 Z-13.349
N6935 X793.221 Y49.19 Z-13.248
N6940 X793.266 Y49.127 Z-13.138
N6945 X793.304 Y49.074 Z-13.021
N6950 X793.334 Y49.032 Z-12.896
N6955 X793.356 Y49.002 Z-12.767
N6960 X793.369 Y48.984 Z-12.634
N6965 X793.373 Y48.977 Z-12.5
N6970 G0 Z15.
N6975 M9
N6980 G53 G0 Z0.
N6985 G53 G0 X0. Y0.
N6990 M30
%
